icons/fuse-filled.svg

<svg width="256" height="256" viewBox="0 0 256 256" fill="none" xmlns="http://www.w3.org/2000/svg">
<path d="M196 0H60C26.8629 0 0 26.8629 0 60V196C0 229.137 26.8629 256 60 256H196C229.137 256 256 229.137 256 196V60C256 26.8629 229.137 0 196 0Z" fill="#241703"/>
<path d="M126.534 138.631C128.002 138.758 129.214 137.613 129.342 136.214C129.342 136.087 129.342 135.96 129.342 135.833V122.604C129.469 121.142 128.321 119.933 126.917 119.806C126.789 119.806 126.662 119.806 126.534 119.806H87.5461V88.8344H131.129C132.596 88.9616 133.872 87.8805 134 86.4814C134 86.227 134 85.9726 133.936 85.7182L132.213 72.4264C132.149 71.7269 131.767 71.0273 131.192 70.5821C130.618 70.2005 129.916 69.9461 129.214 70.0097H66.6163C65.2763 69.9461 64.0638 70.9637 64 72.2992C64 72.4264 64 72.49 64 72.6172V182.195C64 182.894 64.1915 183.53 64.5744 184.103C65.0211 184.675 65.723 185.057 66.4887 184.993H84.9298C85.6955 184.993 86.3975 184.739 86.908 184.166C87.3547 183.594 87.6099 182.894 87.5461 182.195V138.567H126.534V138.631Z" fill="#F19D3B"/>
<path d="M188.653 121.075L188.717 121.138C189.54 121.707 190.616 121.707 191.44 121.138C191.82 120.822 192.073 120.379 192.2 119.937C192.326 119.557 192.39 119.115 192.326 118.736V105.207C192.516 103.879 191.82 102.552 190.68 101.856C185.74 99.2644 178.838 98 170.099 98C160.6 98 153.001 100.402 147.492 105.27C142.109 109.885 139.069 116.649 139.196 123.73C139.006 129.546 140.969 135.172 144.579 139.661C148.188 143.833 154.268 147.753 162.69 151.356C166.109 152.684 169.276 154.58 172.062 156.92L172.125 156.983C173.519 158.247 174.278 160.017 174.215 161.851C174.215 163.621 173.265 165.328 171.746 166.276C169.402 167.73 166.679 168.362 163.956 168.172C156.167 168.109 148.632 165.517 142.552 160.713C142.172 160.397 141.729 160.207 141.286 160.207C140.843 160.207 140.463 160.333 140.083 160.586C139.386 161.029 138.943 161.851 139.006 162.672V177.908C139.006 179.172 139.639 180.31 140.653 180.943H140.716H140.779C146.922 184.356 154.901 186 164.463 186C174.025 186 181.878 183.661 187.83 178.92C198.469 170.069 200.115 154.328 191.376 143.58C187.64 139.282 181.308 135.299 172.442 131.569C169.022 130.241 165.793 128.408 162.943 126.132C161.74 124.931 161.107 123.224 161.17 121.58C161.17 119.937 161.993 118.42 163.323 117.471C165.54 116.017 168.199 115.385 170.859 115.575C177.255 115.701 183.397 117.598 188.653 121.075Z" fill="#F19D3B"/>
</svg>

<svg xmlns="http://www.w3.org/2000/svg" width="256" height="256" fill="none"><path fill="#241703" d="M196 0H60C26.863 0 0 26.863 0 60v136c0 33.137 26.863 60 60 60h136c33.137 0 60-26.863 60-60V60c0-33.137-26.863-60-60-60"/><path fill="#F19D3B" d="M126.534 138.631c1.468.127 2.68-1.018 2.808-2.417v-13.61c.127-1.462-1.021-2.671-2.425-2.798H87.546V88.834h43.583c1.467.128 2.743-.954 2.871-2.353 0-.254 0-.508-.064-.763l-1.723-13.292a2.7 2.7 0 0 0-1.021-1.844c-.574-.381-1.276-.636-1.978-.572H66.616c-1.34-.064-2.552.954-2.616 2.29v109.895q0 1.049.574 1.908c.447.572 1.149.954 1.915.89h18.44c.766 0 1.468-.254 1.979-.827.447-.572.702-1.272.638-1.971v-43.628h38.988zm62.119-17.556.064.063a2.385 2.385 0 0 0 2.723 0c.38-.316.633-.759.76-1.201.126-.38.19-.822.126-1.201v-13.529c.19-1.328-.506-2.655-1.646-3.351C185.74 99.264 178.838 98 170.099 98c-9.499 0-17.098 2.402-22.607 7.27a23.75 23.75 0 0 0-8.296 18.46c-.19 5.816 1.773 11.442 5.383 15.931 3.609 4.172 9.689 8.092 18.111 11.695a33.4 33.4 0 0 1 9.372 5.564l.063.063c1.394 1.264 2.153 3.034 2.09 4.868 0 1.77-.95 3.477-2.469 4.425-2.344 1.454-5.067 2.086-7.79 1.896-7.789-.063-15.324-2.655-21.404-7.459-.38-.316-.823-.506-1.266-.506s-.823.126-1.203.379c-.697.443-1.14 1.265-1.077 2.086v15.236c0 1.264.633 2.402 1.647 3.035h.126c6.143 3.413 14.122 5.057 23.684 5.057s17.415-2.339 23.367-7.08c10.639-8.851 12.285-24.592 3.546-35.34-3.736-4.298-10.068-8.281-18.934-12.011-3.42-1.328-6.649-3.161-9.499-5.437-1.203-1.201-1.836-2.908-1.773-4.552 0-1.643.823-3.16 2.153-4.109 2.217-1.454 4.876-2.086 7.536-1.896 6.396.126 12.538 2.023 17.794 5.5"/></svg>
